assets/svg/telegram.svg

<svg width="28" height="28" viewBox="0 0 28 28" fill="none" xmlns="http://www.w3.org/2000/svg">
<path fill-rule="evenodd" clip-rule="evenodd" d="M23.7442 12.2744L21.7417 18.2819C20.3298 22.5178 19.6238 24.6356 18.5885 25.2374C17.6038 25.81 16.3874 25.81 15.4026 25.2374C14.3673 24.6356 13.6614 22.5178 12.2495 18.2819C12.0228 17.6019 11.9094 17.2618 11.7191 16.9776C11.5347 16.7022 11.2981 16.4654 11.0226 16.2811C10.7384 16.0908 10.3983 15.9774 9.71823 15.7507C5.48248 14.3388 3.36462 13.6329 2.76278 12.5976C2.19024 11.6128 2.19024 10.3965 2.76278 9.41164C3.36462 8.37641 5.48248 7.67044 9.71823 6.25853L15.7258 4.25602C20.9739 2.50665 23.598 1.63196 24.983 3.0171C26.3682 4.40225 25.4936 7.02632 23.7442 12.2744ZM15.22 12.7194C14.8802 12.3758 14.8833 11.8218 15.2269 11.4819L20.1392 6.62382C20.4827 6.284 21.0368 6.28707 21.3765 6.63068C21.7164 6.97427 21.7133 7.52827 21.3698 7.86809L16.4574 12.7263C16.1138 13.066 15.5599 13.063 15.22 12.7194Z" fill="white"/>
</svg>

<svg xmlns="http://www.w3.org/2000/svg" width="28" height="28" fill="none"><path fill="#fff" fill-rule="evenodd" d="m23.744 12.274-2.002 6.008c-1.412 4.236-2.118 6.354-3.154 6.955a3.17 3.17 0 0 1-3.185 0c-1.036-.601-1.742-2.72-3.154-6.955-.226-.68-.34-1.02-.53-1.304a2.534 2.534 0 0 0-.696-.697c-.285-.19-.625-.304-1.305-.53-4.236-1.412-6.353-2.118-6.955-3.153a3.17 3.17 0 0 1 0-3.186c.602-1.036 2.72-1.742 6.955-3.153l6.008-2.003c5.248-1.75 7.872-2.624 9.257-1.239 1.385 1.385.51 4.01-1.239 9.257Zm-8.524.445a.875.875 0 0 1 .007-1.237l4.912-4.858a.875.875 0 1 1 1.23 1.244l-4.912 4.858a.875.875 0 0 1-1.237-.007Z" clip-rule="evenodd"/></svg>
